X:62
T:The Jew's daughter
H:very pretty & will do for some other ballad
Z:Jack Campin - http://www.campin.me.uk
S:Blaikie MS (NLS MS.1578) p20, Blaikie #57
M:3/4
L:1/8
V:1 midi program 1 74
V:2 midi program 1 46 bass middle = d transpose -24
Q:1/4=100
K:E Minor
[V:1]  E|E2 E2 D>E|F2  E2 ED|D2  D2 FA|B4
[V:2]  z|E2 e2 z2 |B2  e2 z2|f2  f2 d2|E2 e2
%
[V:1] d2|BA F2 E2 |D2  E2 Fd|B>A F3  E|E4   z|]
[V:2] f2|d4    A2 |d2 ^c2 d2|ga  b2 B2|e2 E2z|]
W:Transcription (c) Jack Campin 2009, no mirroring or republication without permission

